X:19
T:Bonny Lad. VWMLa.019
%%VWML:Anon2-3049-p13-0
F:http://www.vwml.org/record/Anon2/3049/p13
R:Reel
S:Anon. MS, late 18thC, Vaughan Williams Mem. Library
O:England;Yorkshire
Z:vmp/efdss.Simon Wilson. Reviewed PJH 2008.
M:C|
L:1/8
Q:2/4=85
K:A
e|cBA=g (f/g/a) ec|dfec B/B/B B2|\
cBA=g faec|dfec A/A/A A:|
|:e|cAeA fAeA|dfec B/B/B B2|\
cAeA aAeA|dfec A/A/A A:|
T:New Daniel Cooper. VWMLa.020
R:Reel
S:Anon. MS, late 18thC, Vaughan Williams Mem. Library
O:England;Yorkshire
Z:vmp/efdss.Simon Wilson. Reviewed PJH 2008.
M:2/4
L:1/8
Q:2/4=80
K:G
|:d2g2|f>ed>f|ecBc|d2d2:|\
|:BGGB|cAAc|
BGGB|d2g2|BGGB|cAAc|BGAF|G2G2:|
